X: 23
T: The Voice of Nature
%C: Mr. Gray
%R: jig
B: Mr. Gray "24 Country Dances for the Year 1803" p.12 #1
S: http://imslp.org/wiki/24_Country_Dances_for_the_Year_1803_(Various)  2013-12-2
Z: 2013 John Chambers <jc:trillian.mit.edu>
M: 6/8
L: 1/8
K: C
|:\
gec ({d}cBc) | ({e}dcd) ecA | afd gec | dBG G3 |\
gec gec | agf def | gfe dcB | c3 c3 :|
|:\
dBG GBd | fgf edc | agf edc | dBG G3 |\
gec GA_B | A=Bc def | edc GAB | c3 c3 :|
% - - - - - - - - - - - - - - - - - - - - - - - - -
%%begintext align
%% The 3 Ladies lead round the 3d Gen: the Gen:
%% round the 3 Ladies, lead down the middle, up
%% again, cast off, & Allemand.
%%endtext

%%sep 1 1 500
%%sep 1 1 500
